Sources/FrostedUI/Resources/Icons.xcassets/dollarSign16.imageset/dollar-sign-16.svg

<svg width="16" height="16" viewBox="0 0 16 16" fill="none" xmlns="http://www.w3.org/2000/svg" data-fui-icon="true">
  <path
    d="M12.6797 10.25C12.7257 10.4861 12.75 10.736 12.75 11C12.75 12.6407 11.3455 14.4188 8.75 14.708V15.25C8.75 15.6642 8.41416 15.9999 8 16C7.58582 16 7.25 15.6642 7.25 15.25V14.709C6.04599 14.5785 5.15885 14.1381 4.52148 13.5771C3.77294 12.9182 3.42016 12.1413 3.26465 11.6543C3.13871 11.2598 3.35655 10.837 3.75098 10.7109C4.14549 10.5852 4.5684 10.8037 4.69434 11.1982C4.7954 11.5145 5.02789 12.0244 5.5127 12.4512C5.88103 12.7754 6.42777 13.0805 7.25 13.1982V10.25H8.75V13.1973C10.5858 12.9343 11.25 11.7194 11.25 11C11.25 10.6869 11.2012 10.4438 11.126 10.25H12.6797ZM8 0C8.41416 6.5964e-05 8.75 0.335827 8.75 0.75V1.28809C11.4294 1.56518 12.5186 3.31062 12.7344 4.34766C12.8184 4.75285 12.5584 5.14979 12.1533 5.23438C11.7478 5.31875 11.35 5.05784 11.2656 4.65234C11.1768 4.22644 10.6179 3.05113 8.75 2.79883V7.25H15.25C15.6642 7.25007 16 7.58583 16 8C16 8.38846 15.7045 8.70786 15.3262 8.74609L15.25 8.75H0.75C0.335843 8.74993 0 8.41417 0 8C0 7.58583 0.335843 7.25007 0.75 7.25H4.08496C3.94411 7.1036 3.81605 6.93974 3.7041 6.75684C3.40213 6.26343 3.25 5.67773 3.25 5C3.25 3.35922 4.6559 1.58179 7.25 1.29199V0.75C7.25 0.33581 7.58582 3.86526e-05 8 0ZM7.25 2.80176C5.41456 3.06524 4.75 4.28132 4.75 5C4.75 5.44712 4.84794 5.75221 4.9834 5.97363C5.12037 6.19738 5.32679 6.38591 5.61816 6.5498C6.05115 6.79323 6.60338 6.94859 7.25 7.08691V2.80176Z"
    fill="currentColor"
  />
</svg>

<svg xmlns="http://www.w3.org/2000/svg" width="16" height="16" fill="none" data-fui-icon="true" viewBox="0 0 16 16"><path fill="currentColor" d="M12.68 10.25q.07.354.07.75c0 1.64-1.405 3.419-4 3.708v.542a.75.75 0 0 1-1.5 0v-.541c-1.204-.13-2.091-.57-2.729-1.132a4.35 4.35 0 0 1-1.256-1.923.751.751 0 0 1 1.43-.456c.1.316.333.826.818 1.253.368.324.915.63 1.737.747V10.25h1.5v2.947c1.836-.263 2.5-1.478 2.5-2.197 0-.313-.049-.556-.124-.75zM8 0a.75.75 0 0 1 .75.75v.538c2.68.277 3.769 2.023 3.984 3.06a.75.75 0 0 1-1.468.304c-.09-.426-.648-1.6-2.516-1.853V7.25h6.5a.75.75 0 0 1 .076 1.496l-.076.004H.75a.75.75 0 0 1 0-1.5h3.335a3 3 0 0 1-.38-.493Q3.25 6.016 3.25 5c0-1.64 1.406-3.418 4-3.708V.75A.75.75 0 0 1 8 0m-.75 2.802c-1.835.263-2.5 1.48-2.5 2.198 0 .447.098.752.233.974.137.223.344.412.635.576.433.243.985.399 1.632.537z"/></svg>
